actions/24/go-home.svg

<?xml version="1.0" encoding="UTF-8" standalone="no"?>
<!-- Created with Inkscape (http://www.inkscape.org/) -->

<svg
   xmlns:svg="http://www.w3.org/2000/svg"
   xmlns="http://www.w3.org/2000/svg"
   xmlns:xlink="http://www.w3.org/1999/xlink"
   version="1.0"
   width="24"
   height="24"
   id="svg2405">
  <defs
     id="defs2407">
    <linearGradient
       id="linearGradient2804">
      <stop
         id="stop2806"
         style="stop-color:black;stop-opacity:0"
         offset="0" />
      <stop
         id="stop2812"
         style="stop-color:black;stop-opacity:1"
         offset="0.5" />
      <stop
         id="stop2808"
         style="stop-color:black;stop-opacity:0"
         offset="1" />
    </linearGradient>
    <linearGradient
       x1="21.875"
       y1="48.000977"
       x2="21.875"
       y2="40"
       id="linearGradient3215"
       xlink:href="#linearGradient2804"
       gradientUnits="userSpaceOnUse" />
    <radialGradient
       cx="1"
       cy="44"
       r="5"
       fx="1"
       fy="44"
       id="radialGradient3213"
       xlink:href="#linearGradient2781"
       gradientUnits="userSpaceOnUse"
       gradientTransform="matrix(2,0,0,0.8,36,8.8)" />
    <linearGradient
       id="linearGradient2781">
      <stop
         id="stop2783"
         style="stop-color:black;stop-opacity:1"
         offset="0" />
      <stop
         id="stop2785"
         style="stop-color:black;stop-opacity:0"
         offset="1" />
    </linearGradient>
    <radialGradient
       cx="1"
       cy="44"
       r="5"
       fx="1"
       fy="44"
       id="radialGradient3211"
       xlink:href="#linearGradient2781"
       gradientUnits="userSpaceOnUse"
       gradientTransform="matrix(2,0,0,0.8,-13,-79.2)" />
    <linearGradient
       id="linearGradient5106">
      <stop
         id="stop5108"
         style="stop-color:#729fcf;stop-opacity:1"
         offset="0" />
      <stop
         id="stop5110"
         style="stop-color:#3c77b4;stop-opacity:1"
         offset="1" />
    </linearGradient>
    <linearGradient
       x1="8.1771841"
       y1="5.8576875"
       x2="8.1771841"
       y2="15.676654"
       id="linearGradient2410"
       xlink:href="#linearGradient5106"
       gradientUnits="userSpaceOnUse"
       gradientTransform="matrix(1.5815765,0,0,1.5546005,-0.9328425,-2.1092006)" />
    <linearGradient
       id="linearGradient2782">
      <stop
         id="stop2784"
         style="stop-color:white;stop-opacity:1"
         offset="0" />
      <stop
         id="stop2786"
         style="stop-color:white;stop-opacity:0"
         offset="1" />
    </linearGradient>
    <linearGradient
       x1="26.0625"
       y1="12.466166"
       x2="26.0625"
       y2="48.765167"
       id="linearGradient2407"
       xlink:href="#linearGradient2782"
       gradientUnits="userSpaceOnUse"
       gradientTransform="matrix(0.5041419,0,0,0.4882352,-0.1228468,0.264142)" />
  </defs>
  <g
     id="layer1">
    <g
       transform="matrix(0.4396442,0,0,0.4560856,1.2287171,2.0718465)"
       id="g2822"
       style="opacity:0.3">
      <rect
         width="10"
         height="8"
         x="-11"
         y="-48"
         transform="scale(-1,-1)"
         id="rect1892"
         style="fill:url(#radialGradient3211);fill-opacity:1;fill-rule:nonzero;stroke:none;stroke-width:1;marker:none;visibility:visible;display:inline;overflow:visible" />
      <rect
         width="10"
         height="8"
         x="38"
         y="40"
         id="rect2789"
         style="fill:url(#radialGradient3213);fill-opacity:1;fill-rule:nonzero;stroke:none;stroke-width:1;marker:none;visibility:visible;display:inline;overflow:visible" />
      <rect
         width="27"
         height="8"
         x="11"
         y="40"
         id="rect2793"
         style="fill:url(#linearGradient3215);fill-opacity:1;fill-rule:nonzero;stroke:none;stroke-width:1;marker:none;visibility:visible;display:inline;overflow:visible" />
    </g>
    <path
       d="M 11.999999,1.0000001 0.49119197,12.508808 l 3.11166993,0 0,10 16.7942761,0 0,-10 3.11167,0 -4.147091,-4.5869786 0,-6.4130214 -4.105292,0 0.01594,2.7524981 -3.272369,-3.261306 z"
       id="rect5117"
       style="fill:url(#linearGradient2410);fill-opacity:1;fill-rule:nonzero;stroke:#204a87;stroke-width:1;stroke-linecap:butt;stroke-linejoin:round;stroke-miterlimit:4;stroke-opacity:1;stroke-dasharray:none;stroke-dashoffset:0;marker:none;visibility:visible;display:inline;overflow:visible" />
    <path
       d="m 12.037405,2.3651454 -9.2523885,9.1436626 0.5408151,0 c 0.5617653,-0.02153 1.2770303,-0.17081 1.2770303,1.235847 l 0,8.764153 14.7942761,0 0,-8.809926 c -0.05703,-0.770249 0.591797,-1.108977 1.601151,-1.190074 l 0.17834,0 c -1.089,-1.164249 -1.834569,-2.0334374 -2.814912,-3.2698386 l 0,-5.7301614 -2.089495,0 0.01576,1.8775121 c -0.55476,0.9773201 -0.984357,1.0531311 -1.667393,0.678307 L 12.037405,2.3651454 z"
       id="path2778"
       style="opacity:0.41237111;fill:none;stroke:url(#linearGradient2407);stroke-width:1;stroke-linecap:butt;stroke-linejoin:miter;stroke-miterlimit:4;stroke-opacity:1;stroke-dasharray:none;stroke-dashoffset:0;marker:none;visibility:visible;display:inline;overflow:visible" />
  </g>
</svg>

<?xml version="1.0" encoding="UTF-8" standalone="no"?>
<!-- Created with Inkscape (http://www.inkscape.org/) -->
<svg
   xmlns:dc="http://purl.org/dc/elements/1.1/"
   xmlns:cc="http://creativecommons.org/ns#"
   xmlns:rdf="http://www.w3.org/1999/02/22-rdf-syntax-ns#"
   xmlns:svg="http://www.w3.org/2000/svg"
   xmlns="http://www.w3.org/2000/svg"
   xmlns:xlink="http://www.w3.org/1999/xlink"
   xmlns:sodipodi="http://sodipodi.sourceforge.net/DTD/sodipodi-0.dtd"
   xmlns:inkscape="http://www.inkscape.org/namespaces/inkscape"
   width="24"
   height="24"
   id="svg2405"
   sodipodi:version="0.32"
   inkscape:version="0.46"
   version="1.0"
   sodipodi:docname="stock_music-library.svg"
   inkscape:output_extension="org.inkscape.output.svg.inkscape">
  <defs
     id="defs2407">
    <linearGradient
       id="linearGradient2804">
      <stop
         style="stop-color:black;stop-opacity:0;"
         offset="0"
         id="stop2806" />
      <stop
         id="stop2812"
         offset="0.5"
         style="stop-color:black;stop-opacity:1;" />
      <stop
         style="stop-color:black;stop-opacity:0;"
         offset="1"
         id="stop2808" />
    </linearGradient>
    <linearGradient
       inkscape:collect="always"
       xlink:href="#linearGradient2804"
       id="linearGradient3215"
       gradientUnits="userSpaceOnUse"
       x1="21.875"
       y1="48.000977"
       x2="21.875"
       y2="40" />
    <radialGradient
       inkscape:collect="always"
       xlink:href="#linearGradient2781"
       id="radialGradient3213"
       gradientUnits="userSpaceOnUse"
       gradientTransform="matrix(2,0,0,0.8,36,8.8)"
       cx="1"
       cy="44"
       fx="1"
       fy="44"
       r="5" />
    <linearGradient
       inkscape:collect="always"
       id="linearGradient2781">
      <stop
         style="stop-color:black;stop-opacity:1;"
         offset="0"
         id="stop2783" />
      <stop
         style="stop-color:black;stop-opacity:0;"
         offset="1"
         id="stop2785" />
    </linearGradient>
    <radialGradient
       inkscape:collect="always"
       xlink:href="#linearGradient2781"
       id="radialGradient3211"
       gradientUnits="userSpaceOnUse"
       gradientTransform="matrix(2,0,0,0.8,-13,-79.2)"
       cx="1"
       cy="44"
       fx="1"
       fy="44"
       r="5" />
    <linearGradient
       id="linearGradient5106">
      <stop
         style="stop-color:#729fcf;stop-opacity:1;"
         offset="0"
         id="stop5108" />
      <stop
         style="stop-color:#3c77b4;stop-opacity:1;"
         offset="1"
         id="stop5110" />
    </linearGradient>
    <linearGradient
       inkscape:collect="always"
       xlink:href="#linearGradient5106"
       id="linearGradient2410"
       gradientUnits="userSpaceOnUse"
       gradientTransform="matrix(1.5815765,0,0,1.5546005,-0.9328425,-2.1092006)"
       x1="8.1771841"
       y1="5.8576875"
       x2="8.1771841"
       y2="15.676654" />
    <linearGradient
       inkscape:collect="always"
       id="linearGradient2782">
      <stop
         style="stop-color:white;stop-opacity:1"
         offset="0"
         id="stop2784" />
      <stop
         style="stop-color:white;stop-opacity:0;"
         offset="1"
         id="stop2786" />
    </linearGradient>
    <linearGradient
       inkscape:collect="always"
       xlink:href="#linearGradient2782"
       id="linearGradient2407"
       gradientUnits="userSpaceOnUse"
       gradientTransform="matrix(0.5041419,0,0,0.4882352,-0.1228468,0.264142)"
       x1="26.0625"
       y1="12.466166"
       x2="26.0625"
       y2="48.765167" />
  </defs>
  <sodipodi:namedview
     id="base"
     pagecolor="#ffffff"
     bordercolor="#666666"
     borderopacity="1.0"
     inkscape:pageopacity="0.0"
     inkscape:pageshadow="2"
     inkscape:zoom="11.197802"
     inkscape:cx="16"
     inkscape:cy="16"
     inkscape:current-layer="layer1"
     showgrid="true"
     inkscape:grid-bbox="true"
     inkscape:document-units="px"
     inkscape:window-width="640"
     inkscape:window-height="720"
     inkscape:window-x="800"
     inkscape:window-y="88" />
  <metadata
     id="metadata2410">
    <rdf:RDF>
      <cc:Work
         rdf:about="">
        <dc:format>image/svg+xml</dc:format>
        <dc:type
           rdf:resource="http://purl.org/dc/dcmitype/StillImage" />
      </cc:Work>
    </rdf:RDF>
  </metadata>
  <g
     id="layer1"
     inkscape:label="Layer 1"
     inkscape:groupmode="layer">
    <g
       id="g2822"
       style="opacity:0.29999999999999999"
       transform="matrix(0.4396442,0,0,0.4560856,1.2287171,2.0718465)">
      <rect
         transform="scale(-1,-1)"
         y="-48"
         x="-11"
         height="8"
         width="10"
         id="rect1892"
         style="opacity:1;fill:url(#radialGradient3211);fill-opacity:1;fill-rule:nonzero;stroke:none;stroke-width:1;stroke-linecap:square;stroke-linejoin:round;marker:none;marker-start:none;marker-mid:none;marker-end:none;stroke-miterlimit:4;stroke-dasharray:none;stroke-dashoffset:1.20000057;stroke-opacity:1;visibility:visible;display:inline;overflow:visible" />
      <rect
         y="40"
         x="38"
         height="8"
         width="10"
         id="rect2789"
         style="opacity:1;fill:url(#radialGradient3213);fill-opacity:1;fill-rule:nonzero;stroke:none;stroke-width:1;stroke-linecap:square;stroke-linejoin:round;marker:none;marker-start:none;marker-mid:none;marker-end:none;stroke-miterlimit:4;stroke-dasharray:none;stroke-dashoffset:1.20000057;stroke-opacity:1;visibility:visible;display:inline;overflow:visible" />
      <rect
         y="40"
         x="11"
         height="8"
         width="27"
         id="rect2793"
         style="opacity:1;fill:url(#linearGradient3215);fill-opacity:1;fill-rule:nonzero;stroke:none;stroke-width:1;stroke-linecap:square;stroke-linejoin:round;marker:none;marker-start:none;marker-mid:none;marker-end:none;stroke-miterlimit:4;stroke-dasharray:none;stroke-dashoffset:1.20000057;stroke-opacity:1;visibility:visible;display:inline;overflow:visible" />
    </g>
    <path
       style="fill:url(#linearGradient2410);fill-opacity:1;fill-rule:nonzero;stroke:#204a87;stroke-width:1;stroke-linecap:butt;stroke-linejoin:round;marker:none;marker-start:none;marker-mid:none;marker-end:none;stroke-miterlimit:4;stroke-dasharray:none;stroke-dashoffset:0;stroke-opacity:1;visibility:visible;display:inline;overflow:visible"
       d="M 11.999999,1.0000001 L 0.49119197,12.508808 L 3.6028619,12.508808 L 3.6028619,22.508808 L 20.397138,22.508808 L 20.397138,12.508808 L 23.508808,12.508808 L 19.361717,7.9218294 L 19.361717,1.508808 L 15.256425,1.508808 L 15.272368,4.2613061 L 11.999999,1.0000001 z"
       id="rect5117"
       sodipodi:nodetypes="cccccccccccc" />
    <path
       style="opacity:0.41237110999999999;fill:none;fill-opacity:1;fill-rule:nonzero;stroke:url(#linearGradient2407);stroke-width:1;stroke-linecap:butt;stroke-linejoin:miter;marker:none;marker-start:none;marker-mid:none;marker-end:none;stroke-miterlimit:4;stroke-dasharray:none;stroke-dashoffset:0;stroke-opacity:1;visibility:visible;display:inline;overflow:visible"
       d="M 12.037405,2.3651454 L 2.7850165,11.508808 L 3.3258316,11.508808 C 3.8875969,11.487279 4.6028619,11.337998 4.6028619,12.744655 L 4.6028619,21.508808 L 19.397138,21.508808 L 19.397138,12.698882 C 19.340111,11.928633 19.988935,11.589905 20.998289,11.508808 L 21.176629,11.508808 C 20.087629,10.344559 19.34206,9.4753706 18.361717,8.2389694 L 18.361717,2.508808 L 16.272222,2.508808 L 16.287977,4.3863201 C 15.733217,5.3636402 15.30362,5.4394512 14.620584,5.0646271 L 12.037405,2.3651454 z"
       id="path2778"
       sodipodi:nodetypes="ccccccccccccccc" />
  </g>
</svg>
